X:1
T:Ho! Army of Endeavors
T:Ho! Army of Endeavors
T:William Henry Pontius  (1857–1937)
T:Joel Stone Ives, 1888
T:Public Domain Courtesy of the Cyber Hymnal™
T:Public Domain Courtesy of the Cyber Hymnal™
C:William Henry Pontius  (1857–1937)
Z:Public Domain
Z:Courtesy of the Cyber Hymnal™
%%score ( 1 2 ) ( 3 4 )
L:1/8
Q:1/4=110
M:4/4
K:Bb
V:1 treble 
V:2 treble 
V:3 bass 
V:4 bass 
V:1
 [DF]2 | [DB]3 [FB] [FA]2 [FB]2 | [GB]4 [EG]2 [EG]2 | F2 [FB]2 [EA]2 [DB]2 | [Fc]6 F2 | %5
w: 1.~Ho!|Ar- my of En-|dea- vors, Your|strength the times de-|mand; Re-|
w: 2.~Ho!|Ar- my of En-|dea- vors, It|is your lead- er’s|call. Go|
w: 3.~Lift|high your roy- al|ban- ner! The|ban- ner of the|cross, With|
 [Fc]3 F [Fc]2 [Fd]2 | [Ge]4 [Fd]2 [Fd]2 | [Fc]3 F [FA]2 [=EG]2 | F6 F2 | [Fc]3 F [Fc]2 [FA]2 | %10
w: demp- tion waits your|con- quests, O-|bey your Lord’s com-|mands. Re-|joice! for God is|
w: forth in- to the|con- flict, Not|one of you shall|fall! Keep|all your col- ors|
w: shouts of glad ho-|san- nas; It|can- not suf- fer|loss. O|hap- py, hap- py|
 [DB]4 [DF]2 [DF]2 | [Fe]3 [Fc] [Ff]2 [Fe]2 | [Fd]6 [Fd]2 | [Fd]3 [^Fd] [Gd]2 [_Ad]2 | %14
w: with you, Strike|hard the hosts of|sin! March|forth with cour- age|
w: fly- ing, Make|ev- ery wea- pon|bright, Look|ev- er un- to|
w: sol- diers, Tri-|umph- ant in your|king, March|on with shouts of|
 (e2 d2) [EG]2 [Ge]2 | [Fd]3 [FB] [Fc]2 [EA]2 | [DB]6 ||"^Refrain" F2 | [Fc]6 F2 | [Fd]6 F2 | %20
w: ev- * er, For|yours it is to|win!||||
w: Je- * sus, And|gird you for the|fight.|March|forth, march|forth, March|
w: glad- * ness, And|songs of vic- tory|sing!||||
 [Fe]3 [Fc] (fe) ([Bd][Gc]) | [FB]4 [FA]2 (dc) | B6 (cB) | [FA]2 [Fc]2 !fermata![Ae]2 [Ae]2 | %24
w: ||||
w: forth with cour- * age *|ev- er; March *|forth, march *|forth, March forth, march|
w: ||||
 [Bd]3 [Gc] [FB]2 [EA]2 | [DB]6 |] %26
w: ||
w: forth, For yours it|is|
w: ||
V:2
 x2 | x8 | x8 | F2 x6 | x6 F2 | x3 F x4 | x8 | x3 F x4 | F6 F2 | x3 F x4 | x8 | x8 | x8 | x8 | %14
 G4 x4 | x8 | x6 || F2 | x6 F2 | x6 F2 | x4 F2 x2 | x6 ^F2 | G2 G2 G2 =E2 | x8 | x8 | x6 |] %26
V:3
 [B,,B,]2 | [B,,B,]3 [D,B,] [C,F,]2 [D,B,]2 | [E,B,]4 [E,B,]2 [E,B,]2 | %3
 [D,B,]2 [D,F,]2 [C,F,]2 [B,,B,]2 | [F,A,]6 [F,A,]2 | [F,A,]3 [F,A,] [F,A,]2 B,2 | %6
 [E,B,]4 [B,,B,]2 [B,,B,]2 | [C,A,]3 [C,A,] [C,C]2 [C,B,]2 | [F,A,]6 [F,A,]2 | %9
 [F,A,]3 [F,A,] [F,A,]2 [F,C]2 | [B,,B,]4 [B,,B,]2 B,2 | [F,A,]3 [F,A,] [F,A,]2 [A,C]2 | B,6 B,2 | %13
 B,3 [A,C] [G,B,]2 [F,B,]2 | [E,B,]4 [E,B,]2 [E,B,]2 | [F,C]3 [F,D] [F,E]2 [F,C]2 | [B,,B,]6 || %17
 F,2 | A,6 [F,A,]2 | B,6 [B,,D]2 | [F,C]3 [F,A,] ([B,,B,][C,A,]) ([D,B,][E,C]) | %21
 [F,D]4 [F,C]2 [D,A,]2 | B,2 D2 D2 [C,C]2 | [F,C]2 [F,A,]2 !fermata![F,C]2 [F,C]2 | %24
 [B,,B,]3 [E,B,] [F,D]2 [F,C]2 | [B,,B,]6 |] %26
V:4
 x2 | x8 | x8 | x8 | x8 | x6 B,2 | x8 | x8 | x8 | x8 | x6 B,2 | x8 | B,6 x2 | B,3 x5 | x8 | x8 | %16
 x6 || F,2 | (F,2 C2 A,2) x2 | (B,2 F,2 D,2) x2 | x8 | x8 | G,6 x2 | x8 | x8 | x6 |] %26

